logos/aws-eventbridge.svg

<?xml version="1.0" encoding="UTF-8"?>
<svg width="256px" height="256px" viewBox="0 0 256 256" version="1.1" xmlns="http://www.w3.org/2000/svg" xmlns:xlink="http://www.w3.org/1999/xlink" preserveAspectRatio="xMidYMid">
    <title>AWS EventBridge</title>
    <defs>
        <linearGradient x1="0%" y1="100%" x2="100%" y2="0%" id="linearGradient-1">
            <stop stop-color="#B0084D" offset="0%"></stop>
            <stop stop-color="#FF4F8B" offset="100%"></stop>
        </linearGradient>
    </defs>
    <g>
        <rect fill="url(#linearGradient-1)" x="0" y="0" width="256" height="256"></rect>
        <path d="M171.701581,211.2 C164.844122,211.2 159.262692,205.5904 159.262692,198.6912 C159.262692,191.792 164.844122,186.1824 171.701581,186.1824 C178.559039,186.1824 184.14047,191.792 184.14047,198.6912 C184.14047,205.5904 178.559039,211.2 171.701581,211.2 L171.701581,211.2 Z M144.424488,156.8 L111.352764,156.8 L94.8153104,128 L111.352764,99.2 L144.424488,99.2 L160.95876,128 L144.424488,156.8 Z M88.3874371,69.8176 C81.5299789,69.8176 75.9485485,64.208 75.9485485,57.3088 C75.9485485,50.4096 81.5299789,44.8 88.3874371,44.8 C95.2480781,44.8 100.829508,50.4096 100.829508,57.3088 C100.829508,64.208 95.2480781,69.8176 88.3874371,69.8176 L88.3874371,69.8176 Z M171.701581,179.7824 C169.340451,179.7824 167.087514,180.24 165.003228,181.0432 L151.488784,158.112 L150.77599,158.5376 L167.389815,129.6 C167.956231,128.608 167.956231,127.392 167.389815,126.4 L149.016281,94.4 C148.446682,93.408 147.396584,92.8 146.260569,92.8 L112.826083,92.8 L112.95655,92.7232 L100.565393,71.6928 C104.613043,68.224 107.193739,63.0656 107.193739,57.3088 C107.193739,46.8832 98.757951,38.4 88.3874371,38.4 C78.0201056,38.4 69.5843178,46.8832 69.5843178,57.3088 C69.5843178,67.7344 78.0201056,76.2176 88.3874371,76.2176 C90.7517491,76.2176 93.0046867,75.76 95.0889722,74.9568 L106.655961,94.5824 L88.384255,126.4 C87.8178387,127.392 87.8178387,128.608 88.384255,129.6 L106.760971,161.6 C107.33057,162.592 108.380668,163.2 109.516683,163.2 L146.260569,163.2 C146.524684,163.2 146.782436,163.1584 147.030641,163.0976 L159.526808,184.3072 C155.475975,187.776 152.898461,192.9344 152.898461,198.6912 C152.898461,209.1168 161.331067,217.6 171.701581,217.6 C182.072095,217.6 190.5047,209.1168 190.5047,198.6912 C190.5047,188.2656 182.072095,179.7824 171.701581,179.7824 L171.701581,179.7824 Z M190.670171,102.7328 C183.812712,102.7328 178.234464,97.1232 178.234464,90.224 C178.234464,83.3248 183.812712,77.7152 190.670171,77.7152 C197.527629,77.7152 203.109059,83.3248 203.109059,90.224 C203.109059,97.1232 197.527629,102.7328 190.670171,102.7328 L190.670171,102.7328 Z M213.972801,126.4 L201.893491,105.36 C206.485284,101.9072 209.47329,96.416 209.47329,90.224 C209.47329,79.7984 201.040684,71.3152 190.670171,71.3152 C188.032197,71.3152 185.518326,71.8688 183.236749,72.864 L173.388102,55.7088 C172.821685,54.72 171.768405,54.1088 170.63239,54.1088 L131.183706,54.1088 L131.183706,60.5088 L168.79631,60.5088 L177.906706,76.3808 C174.202724,79.8368 171.870233,84.7552 171.870233,90.224 C171.870233,100.6496 180.302839,109.1328 190.670171,109.1328 C192.601715,109.1328 194.469616,108.8352 196.226144,108.288 L207.544928,128 L191.653444,155.6736 L197.164868,158.8736 L213.972801,129.6 C214.5424,128.608 214.5424,127.392 213.972801,126.4 L213.972801,126.4 Z M67.9328,176.7904 C61.0721594,176.7904 55.490729,171.1776 55.490729,164.2816 C55.490729,157.3824 61.0721594,151.7728 67.9328,151.7728 C74.7902586,151.7728 80.3716886,157.3824 80.3716886,164.2816 C80.3716886,171.1776 74.7902586,176.7904 67.9328,176.7904 L67.9328,176.7904 Z M78.3255885,180.0256 C83.3883341,176.6336 86.7359194,170.8448 86.7359194,164.2816 C86.7359194,153.856 78.3001315,145.3728 67.9328,145.3728 C64.9288829,145.3728 62.0999824,146.1024 59.5797472,147.3664 L48.4582541,128 L66.8858838,95.9072 L61.3712781,92.7072 L42.027199,126.4 C41.4576003,127.392 41.4576003,128.608 42.027199,129.6 L54.4151741,151.168 C51.1471414,154.5728 49.1264982,159.1904 49.1264982,164.2816 C49.1264982,174.7072 57.5622861,183.1904 67.9328,183.1904 C69.4952186,183.1904 71.0067232,182.976 72.4609501,182.6112 L82.6118979,200.2912 C83.1814966,201.28 84.2315946,201.8912 85.3676099,201.8912 L124.819476,201.8912 L124.819476,195.4912 L87.2036902,195.4912 L78.3255885,180.0256 Z" fill="#FFFFFF"></path>
    </g>
</svg>

<svg width="256" height="256" xmlns="http://www.w3.org/2000/svg" preserveAspectRatio="xMidYMid">
	<defs>
		<linearGradient x1="0%" y1="100%" x2="100%" y2="0%" id="a">
			<stop stop-color="#B0084D" offset="0%"/>
			<stop stop-color="#FF4F8B" offset="100%"/>
		</linearGradient>
	</defs>
	<path fill="url(#a)" d="M0 0h256v256H0z"/>
	<path d="M171.702 211.2c-6.858 0-12.44-5.61-12.44-12.509s5.582-12.509 12.44-12.509c6.857 0 12.438 5.61 12.438 12.51 0 6.898-5.581 12.508-12.438 12.508Zm-27.278-54.4h-33.071L94.815 128l16.538-28.8h33.071L160.96 128l-16.535 28.8ZM88.387 69.818c-6.857 0-12.438-5.61-12.438-12.51 0-6.898 5.581-12.508 12.438-12.508 6.861 0 12.443 5.61 12.443 12.509s-5.582 12.509-12.443 12.509Zm83.315 109.964c-2.362 0-4.614.458-6.699 1.261l-13.514-22.931-.713.426L167.39 129.6a3.226 3.226 0 0 0 0-3.2l-18.374-32a3.177 3.177 0 0 0-2.755-1.6h-33.435l.13-.077-12.39-21.03c4.047-3.469 6.628-8.627 6.628-14.384 0-10.426-8.436-18.909-18.807-18.909-10.367 0-18.803 8.483-18.803 18.909 0 10.425 8.436 18.909 18.803 18.909 2.365 0 4.618-.458 6.702-1.261l11.567 19.625L88.384 126.4a3.226 3.226 0 0 0 0 3.2l18.377 32c.57.992 1.62 1.6 2.756 1.6h36.744c.264 0 .521-.042.77-.102l12.496 21.21c-4.051 3.468-6.629 8.626-6.629 14.383 0 10.426 8.433 18.909 18.804 18.909 10.37 0 18.803-8.483 18.803-18.909 0-10.425-8.433-18.909-18.803-18.909Zm18.968-77.05c-6.857 0-12.436-5.609-12.436-12.508 0-6.9 5.579-12.509 12.436-12.509 6.858 0 12.44 5.61 12.44 12.509 0 6.9-5.582 12.509-12.44 12.509Zm23.303 23.668-12.08-21.04c4.592-3.453 7.58-8.944 7.58-15.136 0-10.426-8.432-18.909-18.803-18.909-2.638 0-5.152.554-7.433 1.549l-9.849-17.155a3.18 3.18 0 0 0-2.756-1.6h-39.448v6.4h37.612l9.11 15.872c-3.703 3.456-6.036 8.374-6.036 13.843 0 10.426 8.433 18.909 18.8 18.909 1.932 0 3.8-.298 5.556-.845L207.545 128l-15.892 27.674 5.512 3.2 16.808-29.274a3.21 3.21 0 0 0 0-3.2Zm-146.04 50.39c-6.86 0-12.442-5.612-12.442-12.508 0-6.9 5.581-12.51 12.442-12.51 6.857 0 12.439 5.61 12.439 12.51 0 6.896-5.582 12.508-12.44 12.508Zm10.393 3.236c5.062-3.392 8.41-9.181 8.41-15.744 0-10.426-8.436-18.91-18.803-18.91-3.004 0-5.833.73-8.353 1.994L48.458 128l18.428-32.093-5.515-3.2L42.027 126.4a3.21 3.21 0 0 0 0 3.2l12.388 21.568c-3.268 3.405-5.289 8.022-5.289 13.114 0 10.425 8.436 18.908 18.807 18.908 1.562 0 3.074-.214 4.528-.579l10.15 17.68c.57.989 1.62 1.6 2.757 1.6h39.451v-6.4H87.204l-8.878-15.465Z" fill="#FFF"/>
</svg>
